X: 32514
T: Planxty Burke
R: waltz
M: 3/4
K: Edorian
|:B2|E2 EF GA|B4 A2|G2 GA B2|A2 F2 D2|D2 F2 D2|d2 D2 A2|D2 FE D2|A2 F2 D2|
EF G2 E2|B2 G2 E2|E2 G2 E2|e2 E2 c2|d4 d2|d2 e2 f2|d6|B4:|
|:de|f2 e2 d2|e2 d2 c2|d2 c2 B2|A2 B2 c2|d2 c2 B2|e3 d c2|d2 c2 B2|A2 F2 D2|
EF G2 E2|B2 G2 E2|E2 G2 E2|B2 E2 e2|d4 d2|d2 de f2|d6|B4:|
|:Bc d2 d2|d2 ed c2|d2 ed cB|A2 F2 D2|E4 e2|e2 fe d2|e2 B2 c2|d4 de|
f2 e2 d2|c2 B2 A2|B2 Bc dB|A3 F D2|E2 e2 A2|Bc d2 F2|G6|E4:|

